component-icons/svg/barcode.svg

<?xml version="1.0" encoding="utf-8"?>
<!-- Generator: Adobe Illustrator 24.2.3, SVG Export Plug-In . SVG Version: 6.00 Build 0)  -->
<svg version="1.1" id="Layer_1" xmlns="http://www.w3.org/2000/svg" xmlns:xlink="http://www.w3.org/1999/xlink" x="0px" y="0px"
	 width="24px" height="24px" viewBox="0 0 24 24" enable-background="new 0 0 24 24" xml:space="preserve">
<path d="M10,22h2V2h-2V22z M0,22h2V2H0V22z M5,16h2V2H5V16z M14,16h2V2h-2V16z M22,2v20h2V2H22z M18,16h2V2h-2V16z"/>
</svg>

<svg id="Layer_1" data-name="Layer 1" xmlns="http://www.w3.org/2000/svg" viewBox="0 0 24 24">
  <defs>
    <style>
      .cls-1 {
        fill: gray;
      }
    </style>
  </defs>
  <title>barcode</title>
  <path class="cls-1" d="M10,22h2V2H10ZM0,22H2V2H0Zm5-6H7V2H5Zm9,0h2V2H14ZM22,2V22h2V2ZM18,16h2V2H18Z"/>
</svg>
